icons/guarantees-7.svg

<svg width="86" height="86" viewBox="0 0 86 86" fill="none" xmlns="http://www.w3.org/2000/svg">
<path d="M27.0625 21.75C24.2446 21.75 21.5421 22.8694 19.5495 24.862C17.5569 26.8546 16.4375 29.5571 16.4375 32.375C16.4375 35.1929 17.5569 37.8954 19.5495 39.888C21.5421 41.8806 24.2446 43 27.0625 43C29.8804 43 32.5829 41.8806 34.5755 39.888C36.5681 37.8954 37.6875 35.1929 37.6875 32.375C37.6875 29.5571 36.5681 26.8546 34.5755 24.862C32.5829 22.8694 29.8804 21.75 27.0625 21.75ZM40.3438 48.3125H13.7812C11.6678 48.3125 9.64092 49.1521 8.14649 50.6465C6.65206 52.1409 5.8125 54.1678 5.8125 56.2812C5.8125 62.21 8.25094 66.9594 12.2512 70.1734C16.1878 73.3344 21.4684 74.875 27.0625 74.875C32.6566 74.875 37.9372 73.3344 41.8737 70.1734C45.8687 66.9594 48.3125 62.21 48.3125 56.2812C48.3125 54.1678 47.4729 52.1409 45.9785 50.6465C44.4841 49.1521 42.4572 48.3125 40.3438 48.3125Z" fill="#141414"/>
<path opacity="0.5" d="M47.2122 10.0247C48.2085 9.02846 49.5598 8.46875 50.9688 8.46875H72.2188C73.6277 8.46875 74.979 9.02846 75.9753 10.0247C76.9715 11.021 77.5312 12.3723 77.5312 13.7812V24.4062C77.5312 25.8152 76.9715 27.1665 75.9753 28.1628C74.979 29.159 73.6277 29.7188 72.2188 29.7188H60.5312L50.9688 37.6875V29.7188C49.5598 29.7188 48.2085 29.159 47.2122 28.1628C46.216 27.1665 45.6562 25.8152 45.6562 24.4062V13.7812C45.6562 12.3723 46.216 11.021 47.2122 10.0247Z" fill="#141414"/>
</svg>

<svg xmlns="http://www.w3.org/2000/svg" width="86" height="86" fill="none"><path fill="#141414" d="M27.063 21.75a10.625 10.625 0 1 0 0 21.25 10.625 10.625 0 0 0 0-21.25m13.28 26.563H13.782a7.97 7.97 0 0 0-7.969 7.968c0 5.929 2.439 10.678 6.44 13.892 3.936 3.161 9.216 4.702 14.81 4.702s10.875-1.54 14.812-4.702c3.995-3.214 6.438-7.963 6.438-13.892a7.97 7.97 0 0 0-7.968-7.968"/><path fill="#141414" d="M47.212 10.025a5.31 5.31 0 0 1 3.757-1.556h21.25a5.313 5.313 0 0 1 5.312 5.312v10.625a5.313 5.313 0 0 1-5.312 5.313H60.53l-9.562 7.968V29.72a5.313 5.313 0 0 1-5.313-5.313V13.781c0-1.409.56-2.76 1.556-3.756" opacity=".5"/></svg>
